X:282
T:Reel 282
M:4/4
K:Amaj
L:1/8
ED|CA,B,G, E,>A, (3A,A,A, |EA,A,C D2CD|EA,B,A, B,A,G,E,B,G,|DFDC B,CDB,|CA,B,G, E,A,G,B,|C>D (3CB,C D2FD|E<A, (3CB,A, G,A,B,C|DB,GB, A,2|EA|GABG AGFE|CB,B,D GABG|GEFD EFGA|Bcdc BGED|GABG AcBA|GEBc dBcA| (3GFE FD EDB,D|ECDB, A,2|
